src/assets/images/icon_check_shield.svg

<svg width="16" height="16" viewBox="0 0 16 16" fill="none" xmlns="http://www.w3.org/2000/svg">
<g id="Protect 1">
<g id="surface1403">
<path id="Vector" d="M8.01302 0.672061C7.88455 0.668589 7.75955 0.713728 7.66406 0.800533C7.66406 0.800533 5.16059 3.00539 2.16406 3.00539C1.88802 3.00539 1.66406 3.22935 1.66406 3.50539V7.5922C1.66406 9.81789 2.69358 13.4811 7.80295 15.6321C7.92795 15.686 8.06684 15.686 8.19184 15.6321C13.3012 13.4811 14.3307 9.81789 14.3307 7.5922V3.50539C14.3307 3.22935 14.1068 3.00539 13.8307 3.00539C10.8342 3.00539 8.33073 0.800533 8.33073 0.800533C8.24392 0.720672 8.13108 0.675533 8.01302 0.672061ZM10.4974 6.00539C10.6241 6.00539 10.7526 6.05401 10.8498 6.15123C11.046 6.34741 11.046 6.66338 10.8498 6.85956L7.51649 10.1929C7.41927 10.2901 7.29253 10.3387 7.16406 10.3387C7.03559 10.3387 6.90885 10.2901 6.8099 10.1929L5.14323 8.52623C4.94878 8.33005 4.94878 8.01408 5.14323 7.81789C5.33941 7.62345 5.65538 7.62345 5.85156 7.81789L7.16406 9.13213L10.1432 6.15123C10.2405 6.05401 10.3689 6.00539 10.4974 6.00539Z" fill="#1E5B47"/>
</g>
</g>
</svg>

<svg width="16" height="16" fill="none" xmlns="http://www.w3.org/2000/svg"><path d="M8.013.672a.498.498 0 0 0-.349.129s-2.503 2.204-5.5 2.204a.5.5 0 0 0-.5.5v4.087c0 2.226 1.03 5.89 6.139 8.04a.488.488 0 0 0 .389 0c5.11-2.15 6.139-5.814 6.139-8.04V3.505a.5.5 0 0 0-.5-.5c-2.997 0-5.5-2.204-5.5-2.204a.49.49 0 0 0-.318-.129zm2.484 5.333a.498.498 0 0 1 .353.855l-3.334 3.333a.502.502 0 0 1-.707 0L5.144 8.526a.503.503 0 0 1 0-.708.503.503 0 0 1 .709 0l1.312 1.314 2.98-2.98a.5.5 0 0 1 .353-.147z" fill="#1E5B47"/></svg>
